!!!COM: Palestrina, Giovanni Perluigi da
!!!OPR: Missa Illumina oculos meos
!!!OMD: Kyrie
!!!OTL: Christe
**kern	**kern	**kern	**kern	**kern
*Ibass	*Itenor	*Icalto	*Icant	*Icant
!Bassus	!Tenor	!Altus	!Cantus 2	!Cantus 1
*clefF4	*clefGv2	*clefG2	*clefG2	*clefG2
*k[]	*k[]	*k[]	*k[]	*k[]
*E:phr	*E:phr	*E:phr	*E:phr	*E:phr
*M4/2	*M4/2	*M4/2	*M4/2	*M4/2
=37	=37	=37	=37	=37
0r	0r	0e	0r	0r
=38	=38	=38	=38	=38
1r	0r	1f	0r	0r
[1E	.	1e	.	.
=39	=39	=39	=39	=39
1E]	0r	1g	0r	0r
1F	.	1c	.	.
=40	=40	=40	=40	=40
1E	0r	1e	0r	0b
1G	.	1d	.	.
=41	=41	=41	=41	=41
1C	1r	2c	0r	1cc
.	.	2.e	.	.
1E	[1B	.	.	1b
.	.	4f	.	.
.	.	[2g	.	.
=42	=42	=42	=42	=42
1D	1B]	2g]	0r	1dd
.	.	2f	.	.
4C	1c	1e	.	1g
4D	.	.	.	.
4E	.	.	.	.
4F	.	.	.	.
=43	=43	=43	=43	=43
1G	1B	2d	0r	1b
.	.	1g	.	.
1D	1d	.	.	1a
.	.	2f#	.	.
=44	=44	=44	=44	=44
0r	1G	1g	0b	2.g
.	.	.	.	8f
.	.	.	.	8e
.	1B	2r	.	2d
.	.	2d	.	[2g
=45	=45	=45	=45	=45
0r	1A	2e	1cc	2g]
.	.	4c	.	2f
.	.	4d	.	.
.	2.G	4e	1b	1g
.	.	4f	.	.
.	.	[2g	.	.
.	8F	.	.	.
.	8E	.	.	.
=46	=46	=46	=46	=46
1r	2D	2g]	1dd	1a
.	2d	2f	.	.
[1E	2c	2e	1g	1r
.	4B	[2g	.	.
.	4A	.	.	.
=47	=47	=47	=47	=47
1E]	1G	4g]	1b	0r
.	.	4f	.	.
.	.	1e	.	.
1F	1A	.	1a	.
.	.	2d	.	.
=48	=48	=48	=48	=48
1E	0r	1e	[0g	0b
1G	.	2r	.	.
.	.	2d	.	.
=49	=49	=49	=49	=49
1C	1r	2.e	1g]	1cc
.	.	4f	.	.
1E	2r	2g	1r	1b
.	2G	2e	.	.
=50	=50	=50	=50	=50
1D	2A	1f	2r	1dd
.	2B	.	2d	.
1C	1c	2e	2.e	1g
.	.	2c	.	.
.	.	.	4f	.
=51	=51	=51	=51	=51
0r	1G	2d	1g	1b
.	.	2e	.	.
.	2A	2c	2e	1a
.	2F	[2d	[2f	.
=52	=52	=52	=52	=52
1r	0G	2d]	2f]	0g
.	.	1c	2e	.
2r	.	.	1d	.
2GG	.	2B	.	.
=53	=53	=53	=53	=53
2.C	0r	2A	2e	0r
.	.	2G	1g	.
4BB	.	.	.	.
2C	.	1A	.	.
2D	.	.	2f#	.
=54	=54	=54	=54	=54
1E	2r	2r	0g	0r
.	2C	2G	.	.
2.C	2.G	2.c	.	.
4D	4F	4B	.	.
=55	=55	=55	=55	=55
2E	2G	2c	0r	0r
2F	2A	2d	.	.
2E	2B	2e	.	.
[2A	[2c	[2f	.	.
=56	=56	=56	=56	=56
4A]	4c]	4f]	0r	0r
4G	4B	4e	.	.
2E	2G	1e	.	.
2F	2A	.	.	.
2G	2B	2d	.	.
=57	=57	=57	=57	=57
0C	1c	1e	2r	2r
.	.	.	2c	2e
.	2r	1r	2.e	2.g
.	[2c	.	.	.
.	.	.	4d	4f
=58	=58	=58	=58	=58
0r	4c]	1c	2e	2g
.	4B	.	.	.
.	2A	.	2f	2a
.	2G	2d	2g	2b
.	2F	2f	[2a	[2cc
=59	=59	=59	=59	=59
0r	1G	2e	4a]	4cc]
.	.	.	4g	4b
.	.	1d	1g	1b
.	1A	.	.	.
.	.	2c	2f#	2a
=60	=60	=60	=60	=60
2r	1.G	1d	0g	4b
.	.	.	.	4a
2GG	.	.	.	4g
.	.	.	.	4f
2.C	.	2c	.	4e
.	.	.	.	4f
.	2E	[2e	.	[2g
4BB	.	.	.	.
=61	=61	=61	=61	=61
2C	1A	2e]	0r	2g]
2D	.	4d	.	2f
.	.	4c	.	.
1E	2r	1B	.	1g
.	2G	.	.	.
=62	=62	=62	=62	=62
0F	2.c	1A	0r	0a
.	4B	.	.	.
.	2c	2r	.	.
.	2d	2A	.	.
=63	=63	=63	=63	=63
1.C	2.e	2.c	0r	[0g
.	4d	4B	.	.
.	2e	2c	.	.
2G	2B	2d	.	.
=64	=64	=64	=64	=64
1C	1.c	1.e	2r	1g]
.	.	.	2e	.
1r	.	.	2.g	1r
.	4B	4d	.	.
.	4A	4c	4f	.
=65	=65	=65	=65	=65
0r	2G	2e	2g	1r
.	2F	2f	2a	.
.	2G	2d	2b	2r
.	2A	[2f	2cc	[2a
=66	=66	=66	=66	=66
1r	1E	4f]	1b	2a]
.	.	4e	.	.
.	.	1e	.	2g
2r	1F	.	1r	2.a
[2A	.	2d	.	.
.	.	.	.	4b
=67	=67	=67	=67	=67
2A]	1E	[0e	2r	2cc
2G#	.	.	2b	2b
1A	2r	.	2cc	1a
.	[2A	.	2a	.
=68	=68	=68	=68	=68
1E	2A]	0e]	2b	2r
.	2G#	.	1e	2b
2r	1A	.	.	2cc
[2AA	.	.	[2cc	[2a
=69	=69	=69	=69	=69
2AA]	[0E	[0e	2cc]	2a]
2GG#	.	.	2b	2b
1AA	.	.	1a	1cc
=70	=70	=70	=70	=70
0EE	0E]	0e]	0g#	0b
==	==	==	==	==
*-	*-	*-	*-	*-
!!!CDT: 1525/^1526/-1594/2/2
!!!OCY: Italia
!!!AGN: Mass (Parody)
!!!AST: renaissance, vocal
!!!ASW: Motet (Silva)
!!!PWK: Masses, Book 10
!!!RNB: Cadence finals: G,C,A
!!!YOR: Le Opere Complete, v. 27, p. 155
!!!YOO: Rome, Italy: Fratelli Scalera
!!!END: 1992//
!!!EED: John Miller
!!!YEC: Copyright 2000, John Miller
!!!YEN: United States of America
!!!YEM: Rights to all derivative electronic formats reserved.
!!!YEM: Refer to licensing agreement for further details.
!!!YEM: This file must be accompanied by the licensing agreement.
!!!YEM: A copy of the licensing agreement may be found at http://www.music-cog.ohio-state.edu/HumdrumDatabases/Palestrina/license.txt
!!!EMD: converted to Humdrum by Bret Aarden
